X: 20831
T: PROVIDENCE SETT (tune 4)
C:
%R: reel, hornpipe
B: Elias Howe "The Musician's Companion" 1843 p.83 #1
S: http://imslp.org/wiki/The_Musician's_Companion_(Howe,_Elias)
Z: 2015 John Chambers <jc:trillian.mit.edu>
M: 2/4
L: 1/16
K: F
% - - - - - - - - - - - - - - - - - - - - - - - - - - - - -
V: 1 name="4"
cd |\
f2f2 g2g2 | a4 f2f2 | d2d2 g2g2 | fedc =Bcde |\
f2f2 g2g2 | a4 f2f2 | defd efge | f4 z2 H|]
AB |\
c>dc>B A>Bc>d | c>dc>B A>Bc>d | e>fg>a b>gf>e | f2a2 A2B2 |\
c>dc>B A>Bc>d | c>dc>B A>Bc>d | efga bgfe | (g6 "^D.C."f2) |]
c2 |\
a2a2 f2f2 | cdcB A2c2 | B2G2 g2e2 | f4 e2c2 |\
a2a2 f2f2 | cdcB A2c2 | B2b2a2g2 | (g6 "^D.C."f2) |]
% - - - - - - - - - - Dance description - - - - - - - - - -
%%begintext align
%% Two Ladies back to back,
%% two gentlemen the same,
%% Balance four and turn,
%% Ladies chain,
%% promenade four,
%% sides the same.
%%endtext
% - - - - - - - - - - - - - - - - - - - - - - - - - - - - -
%%sep 1 1 300

%%sep 1 1 500

